X:3023
T:Chinese Breakdown
R:March
C:Trad.
O:USA
Z:Paul Hardy's Session Tunebook 2015 (see www.paulhardy.net). Creative Commons cc by-nc-sa licenced.
M:2/4
L:1/8
Q:1/4=90
K:D
A|"D"dd BA|FF2A|dd BA|"A7"E3A|cc BA|cc2B|AA BA|"D"F2-"A7"FA|
"D"dd BA|FF2 E|"D7"D>D EF|"G"G3 d|"A7"ee2 f/e/|cc2c/B/|A>A Bc|"D"d3 z||
"D"fa/2f/2 ed|ff2f|fa/2f/2 ed|"A7"c3e|aa2a|gg2g|c>c cB|"D"A2-"A7"A2|
"D"fa/2f/2 ed|ff2e|"D7"d>d c=c|"G"B4|"A7"ee2g/e/|cc2B|A>A Bc|"D"d3|]

